X: 6021
T: Caoineadh Eoghain Rua
R: polka
M: 2/4
K: Eminor
EF/ (3GAB|c3 A|B3 G/A/|"dc"B3 G|E4|
EF/ (3GAB|c3 A|B2 (3GAB|"dc"A3 "dc"F|E4|
"dc"ed/ (3B/c/B/ A/F/|G4|"dc"ed/ (3B/c/B/ A/E/|F4|"dc"{F}G3 (3F/E/D/|E4|
E3F|(3GAB ^c/d/e/f/|g3 (3{a}g/f/e/|"dc"f3 e/d/|"dc"{A}B3 (3A/B/^c/|
d2 (3^cde|f4|F4|"dc"G3 (3F/E/D/|E4|
EF/ (3GAB|c3 A|B2 (3GAB|A3 F|"dc"{A}G3 F|E4:|

